humanity-icon-theme/Humanity/status/128/image-missing.svg

<?xml version="1.0" encoding="UTF-8" standalone="no"?>
<!-- Created with Inkscape (http://www.inkscape.org/) -->
<svg
   xmlns:svg="http://www.w3.org/2000/svg"
   xmlns="http://www.w3.org/2000/svg"
   xmlns:xlink="http://www.w3.org/1999/xlink"
   version="1.0"
   width="128"
   height="128"
   id="svg3272">
  <defs
     id="defs3">
    <radialGradient
       cx="605.71429"
       cy="486.64789"
       r="117.14286"
       fx="605.71429"
       fy="486.64789"
       id="radialGradient19613"
       xlink:href="#linearGradient5060"
       gradientUnits="userSpaceOnUse"
       gradientTransform="matrix(2.891661e-2,0,0,1.235294e-2,26.973101,38.470848)" />
    <linearGradient
       id="linearGradient5060">
      <stop
         id="stop5062"
         style="stop-color:#000000;stop-opacity:1"
         offset="0" />
      <stop
         id="stop5064"
         style="stop-color:#000000;stop-opacity:0"
         offset="1" />
    </linearGradient>
    <radialGradient
       cx="605.71429"
       cy="486.64789"
       r="117.14286"
       fx="605.71429"
       fy="486.64789"
       id="radialGradient19616"
       xlink:href="#linearGradient5060"
       gradientUnits="userSpaceOnUse"
       gradientTransform="matrix(-2.89166e-2,0,0,1.235294e-2,21.026894,38.470848)" />
    <linearGradient
       id="linearGradient5048">
      <stop
         id="stop5050"
         style="stop-color:#000000;stop-opacity:0"
         offset="0" />
      <stop
         id="stop5056"
         style="stop-color:#000000;stop-opacity:1"
         offset="0.5" />
      <stop
         id="stop5052"
         style="stop-color:#000000;stop-opacity:0"
         offset="1" />
    </linearGradient>
    <linearGradient
       x1="302.85715"
       y1="366.64789"
       x2="302.85715"
       y2="609.50507"
       id="linearGradient19619"
       xlink:href="#linearGradient5048"
       gradientUnits="userSpaceOnUse"
       gradientTransform="matrix(8.449704e-2,0,0,1.235294e-2,-6.5396456,38.470822)" />
    <linearGradient
       id="linearGradient259-942">
      <stop
         id="stop3802"
         style="stop-color:#ffffff;stop-opacity:1"
         offset="0" />
      <stop
         id="stop3804"
         style="stop-color:#e0e0e0;stop-opacity:1"
         offset="1" />
    </linearGradient>
    <linearGradient
       x1="108.26451"
       y1="110.28094"
       x2="25.817675"
       y2="14.029031"
       id="linearGradient2447"
       xlink:href="#linearGradient259-942"
       gradientUnits="userSpaceOnUse"
       gradientTransform="matrix(1.2159271,0,0,0.8429956,-146.60813,-121.21351)" />
    <linearGradient
       id="linearGradient3610-302">
      <stop
         id="stop3796"
         style="stop-color:#333333;stop-opacity:1"
         offset="0" />
      <stop
         id="stop3798"
         style="stop-color:#292929;stop-opacity:1"
         offset="1" />
    </linearGradient>
    <linearGradient
       x1="-24.032902"
       y1="-13.446558"
       x2="-24.097931"
       y2="-40.163883"
       id="linearGradient3262"
       xlink:href="#linearGradient3610-302"
       gradientUnits="userSpaceOnUse"
       gradientTransform="matrix(-2.6674376,9.9366276e-3,6.4925292e-3,-2.6385322,0.160789,-4.240597)" />
    <linearGradient
       id="linearGradient3266">
      <stop
         id="stop3268"
         style="stop-color:#828282;stop-opacity:1"
         offset="0" />
      <stop
         id="stop3270"
         style="stop-color:#272727;stop-opacity:1"
         offset="1" />
    </linearGradient>
    <radialGradient
       cx="17"
       cy="109.5863"
       r="47.000011"
       fx="17"
       fy="109.5863"
       id="radialGradient3264"
       xlink:href="#linearGradient3266"
       gradientUnits="userSpaceOnUse"
       gradientTransform="matrix(-5.8820652e-8,1.9908865,-3.0607124,-9.042861e-8,352.41216,-2.845055)" />
    <linearGradient
       id="linearGradient8838">
      <stop
         id="stop8840"
         style="stop-color:#000000;stop-opacity:1"
         offset="0" />
      <stop
         id="stop8842"
         style="stop-color:#000000;stop-opacity:0"
         offset="1" />
    </linearGradient>
    <radialGradient
       cx="62.625"
       cy="4.625"
       r="10.625"
       fx="62.625"
       fy="4.625"
       id="radialGradient3249"
       xlink:href="#linearGradient8838"
       gradientUnits="userSpaceOnUse"
       gradientTransform="matrix(2.7105883,0,0,0.677646,-105.5506,86.661599)" />
    <linearGradient
       id="linearGradient2490">
      <stop
         id="stop2492"
         style="stop-color:#791235;stop-opacity:1"
         offset="0" />
      <stop
         id="stop2494"
         style="stop-color:#dd3b27;stop-opacity:1"
         offset="1" />
    </linearGradient>
    <linearGradient
       x1="18.379412"
       y1="44.980297"
       x2="18.379412"
       y2="3.0816143"
       id="linearGradient3246"
       xlink:href="#linearGradient2490"
       gradientUnits="userSpaceOnUse"
       gradientTransform="matrix(1.2384991,0,0,1.2384991,34.476014,38.471737)" />
    <linearGradient
       id="linearGradient3242">
      <stop
         id="stop3244"
         style="stop-color:#f8b17e;stop-opacity:1"
         offset="0" />
      <stop
         id="stop3246"
         style="stop-color:#e35d4f;stop-opacity:1"
         offset="0.26238" />
      <stop
         id="stop3248"
         style="stop-color:#c6262e;stop-opacity:1"
         offset="0.66093999" />
      <stop
         id="stop3250"
         style="stop-color:#690b54;stop-opacity:1"
         offset="1" />
    </linearGradient>
    <radialGradient
       cx="23.895569"
       cy="3.9900031"
       r="20.397499"
       fx="23.895569"
       fy="3.9900031"
       id="radialGradient3244"
       xlink:href="#linearGradient3242"
       gradientUnits="userSpaceOnUse"
       gradientTransform="matrix(0,2.9558729,-3.9016997,0,79.767786,-29.534163)" />
    <linearGradient
       x1="62.943428"
       y1="-20.887085"
       x2="63.397362"
       y2="5.4675598"
       id="linearGradient3241"
       xlink:href="#linearGradient4873"
       gradientUnits="userSpaceOnUse"
       gradientTransform="matrix(2.6070547,0,0,2.6069954,-97.959872,77.348447)" />
    <linearGradient
       id="linearGradient3781">
      <stop
         id="stop3783"
         style="stop-color:#ffffff;stop-opacity:1"
         offset="0" />
      <stop
         id="stop3785"
         style="stop-color:#ffffff;stop-opacity:0"
         offset="1" />
    </linearGradient>
    <linearGradient
       x1="24.938976"
       y1="-3.3904567"
       x2="24.481066"
       y2="45.074459"
       id="linearGradient3238"
       xlink:href="#linearGradient3781"
       gradientUnits="userSpaceOnUse"
       gradientTransform="matrix(1.2922078,0,0,1.2922078,34.08699,34.991019)" />
    <linearGradient
       x1="-64.056503"
       y1="-23.750914"
       x2="-63.973347"
       y2="-110.32434"
       id="linearGradient3231"
       xlink:href="#linearGradient4873"
       gradientUnits="userSpaceOnUse"
       gradientTransform="matrix(0.9809663,0,0,0.9728644,-1.1387337,-1.7656904)" />
    <linearGradient
       id="linearGradient4873">
      <stop
         id="stop4875"
         style="stop-color:#ffffff;stop-opacity:1"
         offset="0" />
      <stop
         id="stop4877"
         style="stop-color:#ffffff;stop-opacity:0"
         offset="1" />
    </linearGradient>
    <linearGradient
       x1="-64.056503"
       y1="-23.750914"
       x2="-63.973347"
       y2="-110.32434"
       id="linearGradient3235"
       xlink:href="#linearGradient4873"
       gradientUnits="userSpaceOnUse"
       gradientTransform="matrix(0.8875408,0,0,0.8556518,-7.2509991,124.3644)" />
    <linearGradient
       x1="108.26451"
       y1="110.28094"
       x2="25.817675"
       y2="14.029031"
       id="linearGradient3340"
       xlink:href="#linearGradient259-942"
       gradientUnits="userSpaceOnUse"
       gradientTransform="matrix(-1.2159253,2.1074084e-3,-8.0971926e-4,-0.8429952,146.72434,120.95935)" />
  </defs>
  <g
     id="layer1">
    <g
       transform="matrix(2.375,0,0,2.3333333,7,5.6666678)"
       id="g3257"
       style="opacity:0.3">
      <rect
         width="40.799999"
         height="2.9999998"
         x="3.5999999"
         y="43"
         id="rect2879"
         style="fill:url(#linearGradient19619);fill-opacity:1;fill-rule:nonzero;stroke:none;stroke-width:1;marker:none;visibility:visible;display:inline;overflow:visible" />
      <path
         d="M 3.6,43.00013 C 3.6,43.00013 3.6,45.999965 3.6,45.999965 C 2.1108662,46.005612 0,45.327854 0,44.499854 C 0,43.671856 1.6617608,43.000131 3.6,43.00013 z"
         id="path2881"
         style="fill:url(#radialGradient19616);fill-opacity:1;fill-rule:nonzero;stroke:none;stroke-width:1;marker:none;visibility:visible;display:inline;overflow:visible" />
      <path
         d="M 44.4,43.00013 C 44.4,43.00013 44.4,45.999965 44.4,45.999965 C 45.889133,46.005565 48,45.327854 48,44.499854 C 48,43.671856 46.338239,43.000131 44.4,43.00013 z"
         id="path2883"
         style="fill:url(#radialGradient19613);fill-opacity:1;fill-rule:nonzero;stroke:none;stroke-width:1;marker:none;visibility:visible;display:inline;overflow:visible" />
    </g>
    <path
       d="M 117.5,109.5 C 117.5,109.5 10.5,109.5 10.5,109.5 C 10.5,109.5 10.5,24.5 10.5,24.5 C 10.5,24.5 117.5,24.5 117.5,24.5 C 117.5,24.5 117.5,109.5 117.5,109.5 z"
       id="rect3580"
       style="fill:url(#linearGradient3340);fill-opacity:1;stroke:#c1c1c1;stroke-width:1;stroke-linecap:round;stroke-linejoin:miter;stroke-miterlimit:4;stroke-dasharray:none;stroke-opacity:0.96862745" />
    <path
       d="M 110.5,102.5 C 110.5,102.5 17.5,102.5 17.5,102.5 C 17.5,102.5 17.5,31.5 17.5,31.5 C 17.5,31.5 110.50002,31.5 110.50002,31.5 C 110.50002,31.5 110.5,102.5 110.5,102.5 z"
       id="path3258"
       style="fill:url(#radialGradient3264);fill-opacity:1;stroke:url(#linearGradient3262);stroke-width:1;stroke-linecap:round;stroke-linejoin:miter;stroke-miterlimit:4;stroke-dasharray:none;stroke-opacity:1" />
    <path
       d="M 92.999992,89.795716 C 92.999992,93.772166 80.105793,96.995716 64.199992,96.995716 C 48.294191,96.995716 35.399991,93.772166 35.399991,89.795716 C 35.399991,85.819266 48.294191,82.595716 64.199992,82.595716 C 80.105793,82.595716 92.999992,85.819266 92.999992,89.795716 L 92.999992,89.795716 z"
       id="path8836"
       style="opacity:0.4;fill:url(#radialGradient3249);fill-opacity:1;fill-rule:evenodd;stroke:none;stroke-width:0.99999988;marker:none;visibility:visible;display:inline;overflow:visible" />
    <path
       d="M 64.199997,42.5 C 50.29787,42.5 38.499999,54.293874 38.499999,68.195999 C 38.499999,82.098129 50.29787,93.500008 64.199997,93.500001 C 78.102117,93.500001 89.500014,82.098129 89.5,68.195999 C 89.5,54.293874 78.102117,42.5 64.199997,42.5 L 64.199997,42.5 z M 64.199997,51.088947 C 73.651566,51.088947 81.306762,58.744146 81.306762,68.195714 C 81.306762,72.162462 79.93235,75.78345 77.668667,78.684256 L 55.994942,53.178914 C 58.430044,51.846525 61.227131,51.088947 64.199997,51.088947 z M 50.499098,57.978097 L 72.095428,83.36733 C 69.733384,84.597916 67.048912,85.302486 64.199997,85.302486 C 54.748427,85.302484 47.093226,77.647286 47.093226,68.195714 C 47.093226,64.356016 48.365104,60.832038 50.499098,57.978097 L 50.499098,57.978097 z"
       id="path2555"
       style="fill:url(#radialGradient3244);fill-opacity:1;stroke:url(#linearGradient3246);stroke-width:1;stroke-linecap:round;stroke-linejoin:round;stroke-miterlimit:4;stroke-dasharray:none;stroke-dashoffset:0;stroke-opacity:1" />
    <path
       d="M 88.499999,68.195001 C 88.499999,80.787498 76.791328,92.5 64.20028,92.5 C 51.608074,92.5 39.499999,80.787386 39.499999,68.195001 C 39.499999,55.603085 51.608074,43.5 64.20028,43.5 C 76.791328,43.5 88.499999,55.603085 88.499999,68.195001 L 88.499999,68.195001 L 88.499999,68.195001 z"
       id="path2463"
       style="opacity:0.4;fill:none;stroke:url(#linearGradient3241);stroke-width:1;stroke-miterlimit:4;stroke-dasharray:none;stroke-opacity:1" />
    <path
       d="M 55.029999,53.883202 L 76.90606,79.396"
       id="path3270"
       style="opacity:0.4;fill:none;stroke:url(#linearGradient3238);stroke-width:1;stroke-linecap:round;stroke-linejoin:miter;stroke-miterlimit:4;stroke-dasharray:none;stroke-opacity:1" />
    <rect
       width="104.91994"
       height="82.819695"
       x="-116.39506"
       y="-108.51977"
       transform="matrix(-0.9999985,1.7188556e-3,-9.6852533e-4,-0.9999995,0,0)"
       id="rect2453"
       style="fill:none;fill-opacity:1;stroke:url(#linearGradient3231);stroke-width:1.00000012;stroke-linecap:round;stroke-linejoin:miter;stroke-miterlimit:4;stroke-dasharray:none;stroke-opacity:0.96862745" />
    <rect
       width="94.927559"
       height="72.841423"
       x="-111.53049"
       y="30.472273"
       transform="matrix(-0.9999986,-1.670898e-3,-9.9632413e-4,0.9999995,0,0)"
       id="rect3233"
       style="fill:none;fill-opacity:1;stroke:url(#linearGradient3235);stroke-width:0.99999976;stroke-linecap:round;stroke-linejoin:miter;stroke-miterlimit:4;stroke-dasharray:none;stroke-opacity:0.96862745" />
  </g>
</svg>

<?xml version="1.0" encoding="UTF-8" standalone="no"?>
<!-- Created with Inkscape (http://www.inkscape.org/) -->
<svg id="svg3272" xmlns="http://www.w3.org/2000/svg" height="128" width="128" version="1.0" xmlns:xlink="http://www.w3.org/1999/xlink">
 <defs id="defs3">
  <radialGradient id="radialGradient19613" xlink:href="#linearGradient5060" gradientUnits="userSpaceOnUse" cy="486.65" cx="605.71" gradientTransform="matrix(.028917 0 0 .012353 26.973 38.471)" r="117.14"/>
  <linearGradient id="linearGradient5060">
   <stop id="stop5062" offset="0"/>
   <stop id="stop5064" style="stop-opacity:0" offset="1"/>
  </linearGradient>
  <radialGradient id="radialGradient19616" xlink:href="#linearGradient5060" gradientUnits="userSpaceOnUse" cy="486.65" cx="605.71" gradientTransform="matrix(-.028917 0 0 .012353 21.027 38.471)" r="117.14"/>
  <linearGradient id="linearGradient19619" y2="609.51" gradientUnits="userSpaceOnUse" x2="302.86" gradientTransform="matrix(.084497 0 0 .012353 -6.5396 38.471)" y1="366.65" x1="302.86">
   <stop id="stop5050" style="stop-opacity:0" offset="0"/>
   <stop id="stop5056" offset=".5"/>
   <stop id="stop5052" style="stop-opacity:0" offset="1"/>
  </linearGradient>
  <linearGradient id="linearGradient3262" y2="-40.164" gradientUnits="userSpaceOnUse" x2="-24.098" gradientTransform="matrix(-2.6674 .0099366 .0064925 -2.6385 .16079 -4.2406)" y1="-13.447" x1="-24.033">
   <stop id="stop3796" style="stop-color:#333" offset="0"/>
   <stop id="stop3798" style="stop-color:#292929" offset="1"/>
  </linearGradient>
  <radialGradient id="radialGradient3264" gradientUnits="userSpaceOnUse" cy="109.59" cx="17" gradientTransform="matrix(-5.8821e-8 1.9909 -3.0607 -9.0429e-8 352.41 -2.8451)" r="47">
   <stop id="stop3268" style="stop-color:#828282" offset="0"/>
   <stop id="stop3270" style="stop-color:#272727" offset="1"/>
  </radialGradient>
  <radialGradient id="radialGradient3249" gradientUnits="userSpaceOnUse" cy="4.625" cx="62.625" gradientTransform="matrix(2.7106 0 0 .67765 -105.55 86.662)" r="10.625">
   <stop id="stop8840" offset="0"/>
   <stop id="stop8842" style="stop-opacity:0" offset="1"/>
  </radialGradient>
  <linearGradient id="linearGradient3246" y2="3.0816" gradientUnits="userSpaceOnUse" x2="18.379" gradientTransform="matrix(1.2385 0 0 1.2385 34.476 38.472)" y1="44.98" x1="18.379">
   <stop id="stop2492" style="stop-color:#791235" offset="0"/>
   <stop id="stop2494" style="stop-color:#dd3b27" offset="1"/>
  </linearGradient>
  <radialGradient id="radialGradient3244" gradientUnits="userSpaceOnUse" cy="3.99" cx="23.896" gradientTransform="matrix(0 2.9559 -3.9017 0 79.768 -29.534)" r="20.397">
   <stop id="stop3244" style="stop-color:#f8b17e" offset="0"/>
   <stop id="stop3246" style="stop-color:#e35d4f" offset=".26238"/>
   <stop id="stop3248" style="stop-color:#c6262e" offset=".66094"/>
   <stop id="stop3250" style="stop-color:#690b54" offset="1"/>
  </radialGradient>
  <linearGradient id="linearGradient3241" y2="5.4676" xlink:href="#linearGradient4873" gradientUnits="userSpaceOnUse" x2="63.397" gradientTransform="matrix(2.6071 0 0 2.607 -97.96 77.348)" y1="-20.887" x1="62.943"/>
  <linearGradient id="linearGradient3238" y2="45.074" gradientUnits="userSpaceOnUse" x2="24.481" gradientTransform="matrix(1.2922 0 0 1.2922 34.087 34.991)" y1="-3.3905" x1="24.939">
   <stop id="stop3783" style="stop-color:#fff" offset="0"/>
   <stop id="stop3785" style="stop-color:#fff;stop-opacity:0" offset="1"/>
  </linearGradient>
  <linearGradient id="linearGradient3231" y2="-110.32" xlink:href="#linearGradient4873" gradientUnits="userSpaceOnUse" x2="-63.973" gradientTransform="matrix(.98097 0 0 .97286 -1.1387 -1.7657)" y1="-23.751" x1="-64.057"/>
  <linearGradient id="linearGradient4873">
   <stop id="stop4875" style="stop-color:#fff" offset="0"/>
   <stop id="stop4877" style="stop-color:#fff;stop-opacity:0" offset="1"/>
  </linearGradient>
  <linearGradient id="linearGradient3235" y2="-110.32" xlink:href="#linearGradient4873" gradientUnits="userSpaceOnUse" x2="-63.973" gradientTransform="matrix(.88754 0 0 .85565 -7.251 124.36)" y1="-23.751" x1="-64.057"/>
  <linearGradient id="linearGradient3340" y2="14.029" gradientUnits="userSpaceOnUse" x2="25.818" gradientTransform="matrix(-1.2159 .0021074 -.00080972 -0.843 146.72 120.96)" y1="110.28" x1="108.26">
   <stop id="stop3802" style="stop-color:#fff" offset="0"/>
   <stop id="stop3804" style="stop-color:#e0e0e0" offset="1"/>
  </linearGradient>
 </defs>
 <g id="layer1">
  <g id="g3257" style="opacity:.3" transform="matrix(2.375 0 0 2.3333 7 5.6667)">
   <rect id="rect2879" style="fill:url(#linearGradient19619)" height="3" width="40.8" y="43" x="3.6"/>
   <path id="path2881" style="fill:url(#radialGradient19616)" d="m3.6 43v3c-1.4891 0.006-3.6-0.672-3.6-1.5s1.6618-1.5 3.6-1.5z"/>
   <path id="path2883" style="fill:url(#radialGradient19613)" d="m44.4 43v3c1.489 0.006 3.6-0.672 3.6-1.5s-1.662-1.5-3.6-1.5z"/>
  </g>
  <path id="rect3580" style="stroke-opacity:.96863;stroke:#c1c1c1;stroke-linecap:round;fill:url(#linearGradient3340)" d="m117.5 109.5h-107v-85h107v85z"/>
  <path id="path3258" style="stroke:url(#linearGradient3262);stroke-linecap:round;fill:url(#radialGradient3264)" d="m110.5 102.5h-93v-71h93v71z"/>
  <path id="path8836" style="opacity:.4;fill-rule:evenodd;fill:url(#radialGradient3249)" d="m93 89.796c0 3.976-12.894 7.2-28.8 7.2s-28.8-3.224-28.8-7.2c0-3.977 12.894-7.2 28.8-7.2s28.8 3.223 28.8 7.2z"/>
  <path id="path2555" style="stroke-linejoin:round;stroke:url(#linearGradient3246);stroke-linecap:round;fill:url(#radialGradient3244)" d="m64.2 42.5c-13.902 0-25.7 11.794-25.7 25.696s11.798 25.304 25.7 25.304 25.3-11.402 25.3-25.304-11.398-25.696-25.3-25.696zm0 8.589c9.452 0 17.107 7.655 17.107 17.107 0 3.966-1.375 7.587-3.638 10.488l-21.674-25.505c2.435-1.332 5.232-2.09 8.205-2.09zm-13.701 6.889l21.596 25.389c-2.362 1.231-5.046 1.935-7.895 1.935-9.452 0-17.107-7.655-17.107-17.106 0-3.84 1.272-7.364 3.406-10.218z"/>
  <path id="path2463" style="opacity:.4;stroke:url(#linearGradient3241);fill:none" d="m88.5 68.195c0 12.592-11.709 24.305-24.3 24.305-12.592 0-24.7-11.713-24.7-24.305s12.108-24.695 24.7-24.695c12.591 0 24.3 12.103 24.3 24.695z"/>
  <path id="path3270" style="opacity:.4;stroke:url(#linearGradient3238);stroke-linecap:round;fill:none" d="m55.03 53.883l21.876 25.513"/>
  <rect id="rect2453" style="stroke-opacity:.96863;stroke:url(#linearGradient3231);stroke-linecap:round;fill:none" transform="matrix(-1 .0017189 -.00096853 -1 0 0)" height="82.82" width="104.92" y="-108.52" x="-116.4"/>
  <rect id="rect3233" style="stroke-opacity:.96863;stroke:url(#linearGradient3235);stroke-linecap:round;fill:none" transform="matrix(-1 -.0016709 -.00099632 1 0 0)" height="72.841" width="94.928" y="30.472" x="-111.53"/>
 </g>
</svg>
